public/img/icon-engine-flat.svg

<svg height="62" viewBox="0 0 79 62" width="79" xmlns="http://www.w3.org/2000/svg"><path d="m90.9675262 98.3700038c-.7434363.1401566-1.279686.7982812-1.2674993 1.5599991v6.2399961c0 .859218.7007813 1.559999 1.5599991 1.559999h6.2399964v4.679998h-7.7999955c-1.1699993 0-2.297342.475313-3.1199982 1.316249-.0304683.012188-.0670316.030468-.0974999.04875l-6.8737461 7.994995h-3.9487477c-1.304061 0-2.4374986.585-3.2662481 1.41375-.8287496.828749-1.4137492 1.962187-1.4137492 3.266248v4.679997h-3.1199982v-7.799996c0-.859217-.7007813-1.559999-1.5599991-1.559999h-6.2399964c-.04875 0-.0975 0-.14625 0-.8043745.073125-1.4198429.749532-1.4137491 1.559999v24.959986c0 .859218.7007812 1.559999 1.5599991 1.559999h6.2399964c.8592178 0 1.5599991-.700781 1.5599991-1.559999v-7.799995h3.1199982v4.679997c0 1.310156.5789063 2.437498 1.4137492 3.266248.8348428.82875 1.9743738 1.413749 3.2662481 1.413749h3.9487477l6.8737461 7.994996c.0304683.018281.0670316.036563.0974999.04875.8165628.834842 1.9499989 1.316249 3.1199982 1.316249h20.0362381c1.17 0 2.303437-.481407 3.119999-1.316249l11.456243-11.651244c.822656-.834843 1.267499-1.956092 1.267499-3.119998v-2.632498h1.559999v6.239996c.006094.859218.700782 1.553906 1.559999 1.559999h6.239997c.859218-.006093 1.553906-.700781 1.559999-1.559999v-24.959986c-.006093-.859218-.700781-1.553905-1.559999-1.559999h-6.239997c-.859217.006094-1.553905.700781-1.559999 1.559999v6.239997h-1.559999v-11.163744c0-2.419217-1.96828-4.436247-4.387497-4.436247h-14.332492v-4.679998h6.239996c.859218 0 1.56-.700781 1.56-1.559999v-6.2399961c0-.8592179-.700782-1.5599991-1.56-1.5599991h-21.839987c-.04875 0-.0974999 0-.1462499 0s-.0974999 0-.1462499 0zm1.8524989 3.1199982h18.7199889v3.119998h-6.239996c-.859218 0-1.559999.700781-1.559999 1.559999v6.239997h-3.119998v-6.239997c0-.859218-.7007816-1.559999-1.5599995-1.559999h-6.2399964zm-3.1199982 14.039992h31.4924821c.694688 0 1.267499.560625 1.267499 1.316249v12.723743c.006093.859218.700781 1.553906 1.559999 1.559999h4.679997c.859218-.006093 1.553906-.700781 1.56-1.559999v-6.239997h3.119998v21.839988h-3.119998v-6.239997c-.006094-.859217-.700782-1.553905-1.56-1.559999h-4.679997c-.859218.006094-1.553906.700782-1.559999 1.559999v4.192498c0 .359532-.152343.6825-.39.92625l-11.456243 11.651243c-.237657.24375-.554531.39-.8775.39h-20.0362381c-.3229682 0-.639843-.14625-.8774995-.39l-7.3124958-8.433745c-.2924998-.335157-.7190613-.53625-1.1699993-.53625h-4.6799973c-.2620315 0-.688593-.201093-1.0237494-.53625-.3351565-.335156-.5362497-.743436-.5362497-1.023749v-18.719989c0-.255937.1949999-.6825.5362497-1.02375s.7678128-.536249 1.0237494-.536249h4.6799973c.450938 0 .8774995-.201094 1.1699993-.53625l7.3124958-8.433745c.2376565-.24375.5545313-.39.8774995-.39zm-28.0799838 9.359995h3.1199982v7.799995c0 .859218.7007812 1.559999 1.5599991 1.559999h4.6799973v3.119998h-4.6799973c-.8592179 0-1.5599991.700782-1.5599991 1.559999v7.799996h-3.1199982z" fill="#4f8be6" fill-rule="evenodd" transform="translate(-58 -98)"/></svg>

<?xml version="1.0" encoding="UTF-8"?>
<svg width="79px" height="62px" viewBox="0 0 79 62" version="1.1" xmlns="http://www.w3.org/2000/svg" xmlns:xlink="http://www.w3.org/1999/xlink">
    <!-- Generator: Sketch 51.2 (57519) - http://www.bohemiancoding.com/sketch -->
    <title>Shape</title>
    <desc>Created with Sketch.</desc>
    <defs></defs>
    <g id="FDS-Design-Pages" stroke="none" stroke-width="1" fill="none" fill-rule="evenodd">
        <g id="Home" transform="translate(-1002.000000, -500.000000)" fill="#4F8BE6">
            <g id="Principles-Tile-Copy-2" transform="translate(944.000000, 402.000000)">
                <path d="M90.9675262,98.3700038 C90.2240899,98.5101604 89.6878402,99.168285 89.7000269,99.9300029 L89.7000269,106.169999 C89.7000269,107.029217 90.4008082,107.729998 91.260026,107.729998 L97.5000224,107.729998 L97.5000224,112.409996 L89.7000269,112.409996 C88.5300276,112.409996 87.4026849,112.885309 86.5800287,113.726245 C86.5495604,113.738433 86.5129971,113.756713 86.4825288,113.774995 L79.6087827,121.76999 L75.660035,121.76999 C74.355974,121.76999 73.2225364,122.35499 72.3937869,123.18374 C71.5650373,124.012489 70.9800377,125.145927 70.9800377,126.449988 L70.9800377,131.129985 L67.8600395,131.129985 L67.8600395,123.329989 C67.8600395,122.470772 67.1592582,121.76999 66.3000404,121.76999 L60.060044,121.76999 C60.011294,121.76999 59.962544,121.76999 59.913794,121.76999 C59.1094195,121.843115 58.4939511,122.519522 58.5000449,123.329989 L58.5000449,148.289975 C58.5000449,149.149193 59.2008261,149.849974 60.060044,149.849974 L66.3000404,149.849974 C67.1592582,149.849974 67.8600395,149.149193 67.8600395,148.289975 L67.8600395,140.48998 L70.9800377,140.48998 L70.9800377,145.169977 C70.9800377,146.480133 71.558944,147.607475 72.3937869,148.436225 C73.2286297,149.264975 74.3681607,149.849974 75.660035,149.849974 L79.6087827,149.849974 L86.4825288,157.84497 C86.5129971,157.863251 86.5495604,157.881533 86.5800287,157.89372 C87.3965915,158.728562 88.5300276,159.209969 89.7000269,159.209969 L109.736265,159.209969 C110.906265,159.209969 112.039702,158.728562 112.856264,157.89372 L124.312507,146.242476 C125.135163,145.407633 125.580006,144.286384 125.580006,143.122478 L125.580006,140.48998 L127.140005,140.48998 L127.140005,146.729976 C127.146099,147.589194 127.840787,148.283882 128.700004,148.289975 L134.940001,148.289975 C135.799219,148.283882 136.493907,147.589194 136.5,146.729976 L136.5,121.76999 C136.493907,120.910772 135.799219,120.216085 134.940001,120.209991 L128.700004,120.209991 C127.840787,120.216085 127.146099,120.910772 127.140005,121.76999 L127.140005,128.009987 L125.580006,128.009987 L125.580006,116.846243 C125.580006,114.427026 123.611726,112.409996 121.192509,112.409996 L106.860017,112.409996 L106.860017,107.729998 L113.100013,107.729998 C113.959231,107.729998 114.660013,107.029217 114.660013,106.169999 L114.660013,99.9300029 C114.660013,99.070785 113.959231,98.3700038 113.100013,98.3700038 L91.260026,98.3700038 C91.211276,98.3700038 91.1625261,98.3700038 91.1137761,98.3700038 C91.0650261,98.3700038 91.0162762,98.3700038 90.9675262,98.3700038 Z M92.8200251,101.490002 L111.540014,101.490002 L111.540014,104.61 L105.300018,104.61 C104.4408,104.61 103.740019,105.310781 103.740019,106.169999 L103.740019,112.409996 L100.620021,112.409996 L100.620021,106.169999 C100.620021,105.310781 99.9192394,104.61 99.0600215,104.61 L92.8200251,104.61 L92.8200251,101.490002 Z M89.7000269,115.529994 L121.192509,115.529994 C121.887197,115.529994 122.460008,116.090619 122.460008,116.846243 L122.460008,129.569986 C122.466101,130.429204 123.160789,131.123892 124.020007,131.129985 L128.700004,131.129985 C129.559222,131.123892 130.25391,130.429204 130.260004,129.569986 L130.260004,123.329989 L133.380002,123.329989 L133.380002,145.169977 L130.260004,145.169977 L130.260004,138.92998 C130.25391,138.070763 129.559222,137.376075 128.700004,137.369981 L124.020007,137.369981 C123.160789,137.376075 122.466101,138.070763 122.460008,138.92998 L122.460008,143.122478 C122.460008,143.48201 122.307665,143.804978 122.070008,144.048728 L110.613765,155.699971 C110.376108,155.943721 110.059234,156.089971 109.736265,156.089971 L89.7000269,156.089971 C89.3770587,156.089971 89.0601839,155.943721 88.8225274,155.699971 L81.5100316,147.266226 C81.2175318,146.931069 80.7909703,146.729976 80.3400323,146.729976 L75.660035,146.729976 C75.3980035,146.729976 74.971442,146.528883 74.6362856,146.193726 C74.3011291,145.85857 74.1000359,145.45029 74.1000359,145.169977 L74.1000359,126.449988 C74.1000359,126.194051 74.2950358,125.767488 74.6362856,125.426238 C74.9775354,125.084988 75.4040984,124.889989 75.660035,124.889989 L80.3400323,124.889989 C80.7909703,124.889989 81.2175318,124.688895 81.5100316,124.353739 L88.8225274,115.919994 C89.0601839,115.676244 89.3770587,115.529994 89.7000269,115.529994 Z M61.6200431,124.889989 L64.7400413,124.889989 L64.7400413,132.689984 C64.7400413,133.549202 65.4408225,134.249983 66.3000404,134.249983 L70.9800377,134.249983 L70.9800377,137.369981 L66.3000404,137.369981 C65.4408225,137.369981 64.7400413,138.070763 64.7400413,138.92998 L64.7400413,146.729976 L61.6200431,146.729976 L61.6200431,124.889989 Z" id="Shape"></path>
            </g>
        </g>
    </g>
</svg>
